SVG/ETH-alt.svg

<svg xmlns="http://www.w3.org/2000/svg" width="226.777" height="226.777" viewBox="0 0 226.777 226.777"><path d="M113.313 0C50.732 0 0 50.732 0 113.313s50.732 113.313 113.313 113.313 113.313-50.732 113.313-113.313S175.894 0 113.313 0zm-1.469 188.386l-44.78-63.344 44.78 26.218v37.126zm0-46.41l-45.083-26.408 45.083-19.748v46.156zm0-49.329l-43.631 19.11 43.631-73.306v54.196zm2.906-54.218l44.244 73.6-44.244-19.382V38.429zm0 149.957V151.26l44.78-26.218-44.78 63.344zm0-46.409V95.821l45.116 19.762-45.116 26.394z"/></svg>

<svg version="1.1" id="Layer_1" xmlns="http://www.w3.org/2000/svg" xmlns:xlink="http://www.w3.org/1999/xlink" x="0px" y="0px"
	 width="226.777px" height="226.777px" viewBox="0 0 226.777 226.777" enable-background="new 0 0 226.777 226.777"
	 xml:space="preserve">
<path fill="#000000" d="M113.313,0C50.732,0,0,50.732,0,113.313s50.732,113.313,113.313,113.313s113.313-50.732,113.313-113.313
	S175.894,0,113.313,0z M111.844,188.386l-44.78-63.344l44.78,26.218V188.386z M111.844,141.976l-45.083-26.408l45.083-19.748
	V141.976z M111.844,92.647l-43.631,19.11l43.631-73.306V92.647z M114.75,38.429l44.244,73.6L114.75,92.647V38.429z M114.75,188.386
	V151.26l44.78-26.218L114.75,188.386z M114.75,141.977V95.821l45.116,19.762L114.75,141.977z"/>
</svg>
